X:12
T:GB/7d/12 Week Before Easter 
%%VWML:GB-7d-12-0
F:http://www.vwml.org/record/GB/7d/12
P:G.S.K. B(utterworth)
C:Transcribed by Simon Furey and Lewis Jones
L:1/4
M:3/4
I:linebreak $
K:G
D | G G D | G2 D | G A/B/ c | d2 d/c/ | B A G | G D D/D/ | G c B |$ A2 B/c/ | d B d | c/B/ A c | B G A | D3/2 E/ F/D/ | G3/2 A/ B | c A3/2 G/ | F G |]

